X:3374
T:La boite à bois (N. Pfister)
O:england
C:Trad 1, 117
M:2/4
L:1/16
K:G
B2GB EBGB|ABcA B2G2|\
AB (3cBA BAGB|AFFG ABcA|B2 GB EBGB|
ABcA B2G2|AB (3cBA BAGB|AFDF E4:|\
|:d2d2 edcB|ABcA B2G2|AB  (3cBA BAGB|
AFFG ABcA|d2d2 edcB|ABcA B2G2|\
AB  (3cBA BAGB|AFDF E4:|


